X: 041010
T: Drocketty's March
S: Darley & McCall Collection 
Z: B.Black 
L: 1/8
M: 6/8
R: jig
K: G
GBd gfe|edc d2d|GBd gfe|edB A2G|
GBd gfe|edc def|gfg efe|dBG A2G :|
B2d c2e|B2d c2A|B2d c2e|dBG A2G|
Bcd cde|Bcd cBA|Bcd cde|dBG A2G :|
d2d GAG|dcd gfe|d2d GAG|dBG A2G|
dcd GAG|dcd gfe|dcd GBd|dBG A2G :|
